X: 8223
T: Copper Beech, The
R: reel
M: 4/4
K: Gmajor
|:DG G2 dGBG|A=F F2 AdcA|BGBd gfde|=f2 ag fcAc|
dedB cAFA|GFDE =F2 Ac|d2 fd Aafd|cAFA G3 F:|
|:GABd gfde|=f2 dc AG^FD|GABd gbaf|gfde =f2 ef|
dg g2 bgdB|cBcd cA=FA|d2 dd dcAG|FDFA G3 F:|

